Obsidian-SemiLight/actions/24s/im-yahoo.svg

<svg viewBox="0 0 24 24" xmlns="http://www.w3.org/2000/svg"><path d="m4 7.0332031.0136719.7207031 2.1074219.2753907c.5778198.5024 3.7913499 4.2208811 4.2812502 5.1757811l.048828 2.664063c-.31404.41389-2.2343751.328125-2.2343751.328125l-.1640625.769531s7.1969246-.144194 7.2343746-.060547c-.018-.0959.013672-.720703.013672-.720703l-2.335937-.0625s-.152166-1.898516-.039063-3.003906c1.53253-1.69615 4.267578-3.6113285 4.267578-3.6113285l1.857422-.3164063.427735-.7441406-6.324219-.0390625.164062.7714844s1.729549.1382125 1.917969.2890625c-.0251.37692-2.992187 2.753906-2.992187 2.753906l-3.244141-4.3691404 2.273438-.1757812.099609-.5429688zm14.330078 4.4765629.015625 4.066406.693359.091797.960938-3.931641zm-.132812 4.515625-.113282.802734.847657.138672.126953-.845703z" fill="#4d4d4d"/></svg>

<svg xmlns="http://www.w3.org/2000/svg" viewBox="0 0 24 24">
  <defs id="defs3051">
    <style type="text/css" id="current-color-scheme">
      .ColorScheme-Text {
        color:#4d4d4d;
      }
      </style>
  </defs>
 <path style="fill:currentColor;fill-opacity:1;stroke:none" 
     d="M 4 7.0332031 L 4.0136719 7.7539062 L 6.1210938 8.0292969 C 6.6989136 8.5316969 9.9124437 12.250178 10.402344 13.205078 L 10.451172 15.869141 C 10.137132 16.283031 8.2167969 16.197266 8.2167969 16.197266 L 8.0527344 16.966797 C 8.0527344 16.966797 15.249659 16.822603 15.287109 16.90625 C 15.269109 16.81035 15.300781 16.185547 15.300781 16.185547 L 12.964844 16.123047 C 12.964844 16.123047 12.812678 14.224531 12.925781 13.119141 C 14.458311 11.422991 17.193359 9.5078125 17.193359 9.5078125 L 19.050781 9.1914062 L 19.478516 8.4472656 L 13.154297 8.4082031 L 13.318359 9.1796875 C 13.318359 9.1796875 15.047908 9.3179 15.236328 9.46875 C 15.211228 9.84567 12.244141 12.222656 12.244141 12.222656 L 9 7.8535156 L 11.273438 7.6777344 L 11.373047 7.1347656 L 4 7.0332031 z M 18.330078 11.509766 L 18.345703 15.576172 L 19.039062 15.667969 L 20 11.736328 L 18.330078 11.509766 z M 18.197266 16.025391 L 18.083984 16.828125 L 18.931641 16.966797 L 19.058594 16.121094 L 18.197266 16.025391 z "
     class="ColorScheme-Text"
     />
</svg>
